!!!!SEGMENT: pl-wtm--r-392-2-m--002_moniuszko-stanislaw--znasz-li-ten-kraj.krn
!!!id: 18xx:1674
!!!COM: Moniuszko, Stanisław
!!!COM-rism: pe30008351
!!!CDT: 1819/05/05-1872/06/04
!!!CNT: Polish
!!!OTL: Znasz li ten kraj
!!!PDT:
!!!SMS-siglum: PL-Wtm
!!!SMS-shelfmark: R 392/2/M
!!!NIFC-rismID: 1001099423
!!!URL-scan: http://repozytorium.nifc.pl/skany/pl-wtm-nut--r392m
!!!ONB-nifc:
!!!SMS-variant:
!!!SMS-altvar:
**kern	**kern	**dynam	**kern	**text
*part2	*part2	*part2	*part1	*part1
*staff3	*staff2	*	*staff1	*staff1
*I"Fortepian	*I"Fortepian	*	*I"Śpiew	*
*I'pf	*I'pf	*	*I'V	*
*clefF4	*clefG2	*	*clefG2	*
*k[f#]	*k[f#]	*	*k[f#]	*
*G:	*G:	*	*G:	*
*M6/8	*M6/8	*	*M6/8	*
*>[A,B,B1,B,B1,C]	*>[A,B,B1,B,B1,C]	*	*>[A,B,B1,B,B1,C]	*
=1	=1	=1	=1	=1
*>A	*>A	*	*>A	*
!	!	!	!LO:TX:a:t=P:problem:w źródle "z Goethego." zapisane przed 1. taktem, pomiędzy 1. i 2. pięciolinią, a "Mickiewicza" przed 1. taktem, pomiędzy 2. i 3. pięciolinią	!
!	!	!	!LO:TX:a:i:t=Z Goethego.\nMickiewicza	!
.	8qa/	p	.	.
*	*^	*	*	*
4G 4C\	8gL 8e/	4.ryy	.	2.r	.
.	8f# 8d#X/	.	.	.	.
8G 8GG\	8gJ 8e/	.	.	.	.
!	!	!LO:TX:a:t=P:problem:kasownik zapisany ołówkiem	!	!	!
4G 4D\	4ee/	4.b 4.g 4.fn\	>	.	.
8G 8GG\	8dd/	.	]	.	.
*	*v	*v	*	*	*
=2	=2	=2	=2	=2
4G 4C\	8cc 8g 8e/	.	2.r	.
.	8ff#L 8f#\	<	.	.
8G 8GG\	8ggJ 8g\	.	.	.
4A-X 4F# 4BB\	4eee 4ee\	[ >	.	.
8G 8GG\	8ddd 8dd\	.	.	.
=3	=3	=3	=3	=3
4G 4E 4C\	4ccc 4cc\	]	2.r	.
8r	8r	.	.	.
!	!	!LO:DY:b:t=for.	!	!
4E-X 4EE-X/	4gg 4cc 4g\	f	.	.
8r	8r	.	.	.
=4	=4	=4	=4	=4
*2\right	*2\right	*	*	*
!	!	!LO:DY:b:rj:t=p.	!	!
2.A 2.D\	(>2.f# (<2.c/	p	2.r	.
=5	=5	=5	=5	=5
8G 8D 8GG\	8g 8B/))	.	2.r	.
8r	8r	.	.	.
8G 8D 8GG\	8g 8B/	.	.	.
8G 8D 8GG\	8g 8B/	.	.	.
8r	8r	.	.	.
8G 8D 8GG\	8g 8B/	.	.	.
!!LO:LB:g=original
=6!|:	=6!|:	=6!|:	=6!|:	=6!|:
*>B	*>B	*	*>B	*
8G 8D 8GG\	8g 8B/	.	8r	.
8r	8r	.	8r	.
8G\	8dd 8b\	.	8d/	Znasz-
8G\	8d/	.	4b/	-li
8r	8r	.	.	.
8G\	8cc 8a\	.	8a/	ten
=7	=7	=7	=7	=7
8G\	4b 4g/	.	[<4.g/	Kray?
8r	.	.	.	.
8d 8G\	8b 8g/	.	.	.
4d#X 4G\	4b 4g/	.	4g/]	.
8d# 8G\	8b 8g/	.	8g/	gdzie
=8	=8	=8	=8	=8
4e 4G\	4cc 4g/	.	4g/	cy-
8e 8G\	8cc 8g/	.	8g/	-try-
4B-X 4G\	4cc#X 4g/	.	4f#/	-na
8B- 8G\	8cc# 8g/	.	8e/	doy-
=9	=9	=9	=9	=9
4Bn 4G\	4dd 4g/	.	4.d/	-rze-
8B 8G\	8dd 8g/	.	.	.
4d 4G\	4b 4g/	.	8g/	-wa
.	.	.	8r	.
8d 8G\	8b 8g/	.	8r	.
=10	=10	=10	=10	=10
4d 4G\	4b 4g/	.	8r	.
.	.	.	8r	.
8d 8G\	8b 8g/	.	8g/	Po-
4d 4G\	4b 4g/	.	4f#/	-ma-
8d 8G\	8b 8g/	.	8g/	-rańcz
!!LO:LB:g=original
=11	=11	=11	=11	=11
4d 4F#\	4cc 4a/	.	[<4.a/	blask
8d 8F#\	8cc 8a/	.	.	.
4d 4F#\	4cc 4a/	.	4a/]	.
8d 8F#\	8cc 8a/	.	8d/	zie-
=12	=12	=12	=12	=12
4d 4G\	4b 4g/	.	4g/	-lo-
8G\	8g/	.	8g/	-ne
4GG/	4ee 4cc\	.	4cc\	zło-
8G\	8dd 8b\	.	8b\	-ci
=13	=13	=13	=13	=13
4D\	4.b 4.g#X/	.	4.g#X/	drze-
(>8d\	.	.	.	.
4D\)	8cc 8a\	.	4a/	-wa
.	8r	.	.	.
(>8d\	8r	.	8r	.
=14	=14	=14	=14	=14
8D\)	8r	.	8r	.
8r	8r	.	8r	.
8c#X 8E\	8a#X 8g/	.	8a#X/	Gdzie
4d 4D\	4b 4g/	.	4b/	swie-
!	!LO:SIC:v:s=8an	!	!	!
8cn 8D\	8a# 8f#/	.	8an/	-ży
=15	=15	=15	=15	=15
4B 4G\	4g/	.	[<4.g/	bluszcz
8B 8G\	8g 8d/	.	.	.
4B 4G\	4g 4d/	.	4g/]	.
8B 8G\	8g 8d/	.	8g/	ru-
!!LO:PB:g=original
=16	=16	=16	=16	=16
4B 4F#\	4a 4d#X/	.	4e#X/	-i-
8B 8F#\	8a 8d#/	.	8f#/	-ny
4B 4F#\	4a 4d#/	.	4b/	da-
8B 8F#\	8a 8d#/	.	8d#X/	-wne
=17	=17	=17	=17	=17
4B 4E\	4g 4e/	.	4.f#/	stro-
8B 8E\	8g 8e/	.	.	.
4B 4E\	4g 4e/	.	4e/	-i
8B 8E\	8g 8e/	.	8r	.
=18	=18	=18	=18	=18
4B 4E\	4g 4e/	.	8r	.
.	.	.	8r	.
8c 8E\	8a 8e/	.	8a/	Gdzie
4c 4E\	4a 4e/	.	4a/	bu-
8B 8G 8E\	8g 8e/	.	8g/	-ja
=19	=19	=19	=19	=19
4B 4F#\	4f# 4d/	.	4.f#/	la-
8B 8F#\	8f# 8d/	.	.	.
4B 4F#\	4f# 4d/	.	4f#/	-ur
8B 8F#\	8f# 8d/	.	8f#/	i
=20	=20	=20	=20	=20
4c#X 4F#\	4a#X 4e/	.	4cc\	cy-
8c# 8F#\	8a# 8e/	.	8f#/	-prys
4c# 4F#\	4a# 4e/	.	4dd\	ci-
8c# 8F#\	8a# 8e/	.	8cc\	-cho
!!LO:LB:g=original
=21	=21	=21	=21	=21
8B 8G 8BB\	8b 8d/	.	(>4b\	sto-
8r	8r	.	.	.
8r	8b\	.	8b\)	-i
4r	4bb;>\	.	4r;>	.
8r	8r	.	8r	.
=22	=22	=22	=22	=22
!LO:N:vis=2	!LO:N:vis=2	!	!	!
2.rD	2.rb	.	4r	.
.	.	.	8r	.
.	.	.	8d/	Znasz-
.	.	.	8d/	-li
!	!	!LO:DY:t=for	!	!
.	.	f	8d/	ten
=23	=23	=23	=23	=23
2.F#X 2.FF#X/	2.dd 2.a 2.d/	.	[<4.d/	Kray?
.	.	.	4d/]	.
.	.	.	8d/	znasz-
=24	=24	=24	=24	=24
2.Fn 2.FFn/	2.dd 2.b-X 2.a-X 2.d/	.	4d/	-li
.	.	.	8dd\	O
.	.	.	4dd\	mo-
.	.	.	8dd\	-ja
=25	=25	=25	=25	=25
!LO:SIC:v:t=custos C	!LO:SIC:v:t=custos b	!	!	!
4.E 4.EE;>/	4.dd 4.bn 4.g#X 4.d;>/	.	8.dd;>\L	mi-
.	.	.	16cc\L	.
.	.	.	16b\	.
!	!	!	!LO:SIC:v:t=custos b	!
.	.	.	16a\JJ	.
!!LO:LB:g=original
4r;>	4r;>	.	4g#X/	-ła
8r	8r	.	8r;>	.
=26	=26	=26	=26	=26
2.e 2.A\	8r	.	8cc\	Tam
.	8ccL 8a\	.	8b\	był
.	8ccJ 8a\	.	8a/	mi
*	*tremolo	*	*	*
.	8cc 8a\L	.	4.e/	ray,
.	8cc 8a\	.	.	.
.	8cc 8a\J	.	.	.
=27	=27	=27	=27	=27
2.e-X 2.G\	8r	.	8cc\	tam
*	*Xtremolo	*	*	*
.	8ccL 8a\	.	8b\	był
.	8ccJ 8a\	.	8a\	mi
*	*tremolo	*	*	*
.	8cc 8a\L	.	4.e-X/	ray,
.	8cc 8a\	.	.	.
.	8cc 8a\J	.	.	.
*	*Xtremolo	*	*	*
=28	=28	=28	=28	=28
4d 4G\	8r	.	16d/	po-
.	.	.	16d/	-kiś
.	8bL 8g/	.	[<4b/	ty
8r	8bJ 8g/	.	.	.
4D\	8r	.	8b/]	ze
.	8ccL 8a 8f#/	.	8a/	.
8r	8ccJ 8a 8f#/	.	8d/	mną
=29	=29	=29	=29	=29
4BB 4BBB/	4dd 4a-X 4fn/	.	8.dd;>\L	by-
.	.	.	(>16cc\L	.
8r	8r	.	16b\	.
.	.	.	16a\JJ)	.
!LO:TX:b:i:t=V&colon; S&colon;_	!	!	!	!
4r	4r	.	4g#X/	-ła
8r;>	8r;>	.	8r;>	.
!!LO:PB:g=original
=30	=30	=30	=30	=30
2.A 2.AA\	8r	.	8cc\	tam
.	8ccL 8a 8e/	.	8b\	był
.	8ccJ 8a 8e/	.	8a/	mi
*	*tremolo	*	*	*
.	8cc 8a 8e/L	.	4.e/	ray
.	8cc 8a 8e/	.	.	.
.	8cc 8a 8e/J	.	.	.
=31	=31	=31	=31	=31
2.G 2.GG\	8r	.	8cc\	tam
*	*Xtremolo	*	*	*
.	8ccL 8a 8e-X/	.	8b\	był
.	8ccJ 8a 8e-/	.	8a\	mi
*	*tremolo	*	*	*
.	8cc 8a 8e-/L	.	4.e/	ray
.	8cc 8a 8e-/	.	.	.
.	8cc 8a 8e-/J	.	.	.
*	*Xtremolo	*	*	*
=32	=32	=32	=32	=32
4F# 4FF#/	8r	.	8.d/	pó-
.	8ccL 8a 8d/	.	.	.
.	.	.	16c#X/	-kiś
8r	8ccJ 8a 8d/	.	8d/	ty
4D 4DD/	8r	.	4b/	ze
*	*rep	*	*	*
.	8ccL 8a 8d/	.	.	.
8r	8ccJ 8a 8d/	.	8a/	mną
*	*Xrep	*	*	*
=33	=33	=33	=33	=33
*	*^	*	*	*
8GL 8GG\	8bL 8g 8d/	4.rAyy	<	4ee\	by-
8B 8G 8D\	8cc#X 8a#X/	.	.	.	.
8BJ 8G 8D\	8ddJ 8b/	.	[[	8a/	-ła
8D\L	4bb/	4.ff# 4.dd 4.ccn\	>	4r	.
8c 8A 8F# 8D\	.	.	.	.	.
8cJ 8A 8F# 8D\	8aa/	.	]	8r	.
*	*v	*v	*	*	*
=34	=34	=34	=34	=34
!LO:TX:t=P:problem:mixed beam	!	!	!	!
!	!	!LO:DY:rj:t=for	!	!
8GG/L	8ggL 8b\	f	2.r	.
8B\ 8G\ 8D\	8ccc#X 8cc#X\	.	.	.
8B\J 8G\ 8D\	8dddJ 8dd\	.	.	.
!LO:TX:t=P:problem:mixed beam	!	!	!	!
!	!LO:TX:a:t=8	!	!	!
8FF#/L	4bb^<\	.	.	.
8c\ 8A\ 8D\	.	.	.	.
!	!LO:TX:a:t=8	!	!	!
8c\J 8A\ 8D\	8aa 8a\	.	.	.
!!LO:LB:g=original
=35	=35	=35	=35	=35
*>B1	*>B1	*	*>B1	*
!	!LO:TX:t=P:problem:ten takt stanowi jednocześnie pierwszą i drugą voltę	!	!	!
!	!LO:TX:a:i:t=1. 2. W..	!	!	!
4B 4G 4D\	4gg 4g\	.	2.r	.
8D 8GG/	8g 8B/	.	.	.
4D 4GG/	4g 4B/	.	.	.
8D 8GG/	8g 8B/	.	.	.
=36:|!	=36:|!	=36:|!	=36:|!	=36:|!
*>C	*>C	*	*>C	*
4B 4G 4D\	4gg 4g\	.	2.r	.
8r	8r	.	.	.
!	!LO:TX:a:i:t=pour finir	!	!	!
4GG 4GGG/	4G/	.	.	.
8r	8r	.	.	.
==	==	==	==	==
*-	*-	*-	*-	*-
!!!system-decoration: (s1)[(s2,s3)]
!!!RDF**kern: > = above
!!!RDF**kern: < = below
!!!EED: Antoni Szymański
!!!EST: 2021-04-16
!!!ENC: Mateusz Solarz
!!!END: 2021-03-30
